X:1
T: Miss Weymes
C:
R:Strathspey
Q: 128
K:Cm
M:4/4
L:1/16
|:B,2|E4 e3c B3G F2G2|E3F EFGF E2C2 C2B,2|E4 e3c B3G F2G2|E3F G3F E2C2 C2B,2|
E4 e3c B3G F2G2|E3F EFGF E2C2 C2B,2|E4 e3c B3G F2G2|E3F G3F E2C2 C2E1/2F1/2G|
A3B A2c2 A3B G2B2|F3E F2G2 c4 c3d|e3g c3e B3e G3e|E3F G2F2 E2C2 C2E1/2F1/2G|
A3B A2c2 A3B G2B2|F3E F2G2 c4 c3d|e3g c3e B3g G3e|E3F G2F2 E2C2 C2:|
